X: 12033
T: Erika Damiani's
R: jig
M: 6/8
K: Gmajor
G3 GAB|edB dBA|G3 GAB|AGE GED|
G3 GAB|edB def|g3 ged|edB dBA:|
dBd g3|ede g3|dBd g3|edB A3|
dBd g3|ede gab|age ged|edB dBA:|
B3 dBG|c3 ecA|B3 dBG|FGA FGA|
B3 dBG|c3 ecA|Bde ged|BAG A3:|

